svgs/regular/film-slash.svg

<svg xmlns="http://www.w3.org/2000/svg" viewBox="0 0 640 512"><!--! Font Awesome Pro 6.6.0 by @fontawesome - https://fontawesome.com License - https://fontawesome.com/license (Commercial License) Copyright 2024 Fonticons, Inc. --><path d="M5.1 9.2C13.3-1.2 28.4-3.1 38.8 5.1L89.5 44.9C100.2 36.8 113.6 32 128 32l384 0c35.3 0 64 28.7 64 64l0 320c0 3.3-.2 6.5-.7 9.6l55.5 43.5c10.4 8.2 12.3 23.3 4.1 33.7s-23.3 12.3-33.7 4.1L9.2 42.9C-1.2 34.7-3.1 19.6 5.1 9.2zM176 112.6L176 80l-41.6 0L176 112.6zM328.3 232l87.7 0 0-40 0-112L224 80l0 70.3L328.3 232zM528 388.5l0-44.5-56.8 0L528 388.5zM416 423.8L487.4 480 128 480c-35.3 0-64-28.7-64-64l0-269.6L152.3 216 112 216l0 80 64 0 0-61.3L233.5 280l-9.5 0 0 40 0 112 192 0 0-8.2zM176 344l-64 0 0 72c0 8.8 7.2 16 16 16l48 0 0-88zM464 80l0 88 64 0 0-72c0-8.8-7.2-16-16-16l-48 0zm64 136l-64 0 0 80 64 0 0-80z"/></svg>

<svg xmlns="http://www.w3.org/2000/svg" viewBox="0 0 640 512"><!--! Font Awesome Pro 6.5.2 by @fontawesome - https://fontawesome.com License - https://fontawesome.com/license (Commercial License) Copyright 2024 Fonticons, Inc. --><path d="M5.1 9.2C13.3-1.2 28.4-3.1 38.8 5.1L89.5 44.9C100.2 36.8 113.6 32 128 32H512c35.3 0 64 28.7 64 64V416c0 3.3-.2 6.5-.7 9.6l55.5 43.5c10.4 8.2 12.3 23.3 4.1 33.7s-23.3 12.3-33.7 4.1L9.2 42.9C-1.2 34.7-3.1 19.6 5.1 9.2zM176 112.6V80H134.4L176 112.6zM328.3 232H416V192 80H224v70.3L328.3 232zM528 388.5V344H471.2L528 388.5zM416 423.8L487.4 480H128c-35.3 0-64-28.7-64-64V146.4L152.3 216H112v80h64V234.7L233.5 280H224v40V432H416v-8.2zM176 344H112v72c0 8.8 7.2 16 16 16h48V344zM464 80v88h64V96c0-8.8-7.2-16-16-16H464zm64 136H464v80h64V216z"/></svg>
